!!!COM: Haydn, Franz Joseph
!!!OPR: String Quartet in C Major
!!!ONM: Opus 33, No. 3
!!!OTL: Affettuoso 
!!!OMV: 1
!!!SCT: H III:39
!!!SCA: Thematisch-bibliographisches Werkevererzeichnis (A. van Hoboken)
!!!YOR: Richault Edition, volume 7
!!!EED: Frances Bennion
!!!ENC: Frances Bennion
!!!CDT: 1732/3/31/-1809/5/31/
!!!OCY: Österreich
!!!YEC: Copyright (c) 1994, 2000 Center for Computer Assisted Research in the Humanities
!!!YEM: Rights to all derivative editions reserved.
!!!YEM: Refer to licensing agreement for further details.
!!!YEN: United States of America
**kern	**kern	**kern	**kern
*k[]	*k[]	*k[]	*k[]
*C:	*C:	*C:	*C:
*clefF	*clefF	*clefC3	*clefF4
*M4/4	*M4/4	*M4/4	*M4/4
*tb16	*tb16	*tb16	*tb16
=1	=1	=1	=1
1r	8cc	8e	1r
.	8cc	8e	.
.	8cc	8e	.
.	8cc	8e	.
.	8cc	8e	.
.	8cc	8e	.
.	8cc	8e	.
.	8cc	8e	.
=2	=2	=2	=2
1gg	8cc	8e	1r
.	8cc	8e	.
.	8cc	8e	.
.	8cc	8e	.
.	8cc	8e	.
.	8cc	8e	.
.	8cc	8e	.
.	8cc	8e	.
=3	=3	=3	=3
2gg	8cc	8e	1r
.	8cc	8e	.
.	8cc	8e	.
.	8cc	8e	.
2gg	8cc	8e	.
.	8cc	8e	.
.	8cc	8e	.
.	8cc	8e	.
=4	=4	=4	=4
[2gg	4cc	4e	4r
.	2g	2e	4CC
8gg]	.	.	4EE
16ee	.	.	.
16gg	.	.	.
8ff	8b	4f	4GG
16dd	8dd	.	.
16b	.	.	.
=5	=5	=5	=5
16b	4cc	4e	4C
16cc	.	.	.
16ee	.	.	.
16cc	.	.	.
4.g	2e	2G	4C
.	.	.	4E
16e	.	.	.
16g	.	.	.
8f	4f	8B	4G
16d	.	8d	.
16B	.	.	.
=6	=6	=6	=6
16B	4e	4c	4c
16c	.	.	.
16e	.	.	.
16c	.	.	.
8G	2.r	2.r	2.r
2r	.	.	.
8r	.	.	.
=7	=7	=7	=7
1r	8dd	8f	1r
.	8dd	8f	.
.	8dd	8f	.
.	8dd	8f	.
.	8dd	8f	.
.	8dd	8f	.
.	8dd	8f	.
.	8dd	8f	.
=8	=8	=8	=8
1aa	8dd	8f	1r
.	8dd	8f	.
.	8dd	8f	.
.	8dd	8f	.
.	8dd	8f	.
.	8dd	8f	.
.	8dd	8f	.
.	8dd	8f	.
=9	=9	=9	=9
2aa	8dd	8f	1r
.	8dd	8f	.
.	8dd	8f	.
.	8dd	8f	.
2aa	8dd	8f	.
.	8dd	8f	.
.	8dd	8f	.
.	8dd	8f	.
=10	=10	=10	=10
[2aa	4dd	4f	4r
.	2a	2f	4DD
8aa]	.	.	4FF
16ff	.	.	.
16aa	.	.	.
8gg	8cc#	4g	4AA
16ee	8ee	.	.
16cc#	.	.	.
=11	=11	=11	=11
16cc#	4dd	4f	4D
16dd	.	.	.
16ff	.	.	.
16dd	.	.	.
4.a	2f	2A	4D
.	.	.	4F
16f	.	.	.
16a	.	.	.
8g	4g	8c#	4A
16e	.	8e	.
16c#	.	.	.
=12	=12	=12	=12
16c#	4f	4d	4d
16d	.	.	.
16f	.	.	.
16d	.	.	.
8A	2.r	2.r	2.r
2r	.	.	.
8r	.	.	.
=13	=13	=13	=13
1r	8d	8B-	1r
.	8d	8B-	.
.	8d	8B-	.
.	8d	8B-	.
.	8d	8B-	.
.	8d	8B-	.
.	8d	8B-	.
.	8d	8B-	.
=14	=14	=14	=14
[2gg	8d	8B-	1r
.	8d	8B-	.
.	8d	8B-	.
.	8d	8B-	.
8gg]	8d	8B-	.
16aa	8d	8B-	.
16bb-	.	.	.
16aa	8d	8B-	.
16gg	.	.	.
16ff	8d	8B-	.
16ee	.	.	.
=15	=15	=15	=15
2dd	2.e	1A	1r
4cc#	.	.	.
4dd	4f	.	.
=16	=16	=16	=16
2cc	2.f	2.G	1r
4b	.	.	.
4cc	4e	4A	.
=17	=17	=17	=17
4.dd	4.a	2F	1r
16ff	8f	.	.
16aa	.	.	.
4cc	4e	4G	.
4b	4d	4G	.
=18	=18	=18	=18
[1cc	[2e	2c	8CC
.	.	.	8EE
.	.	.	8GG
.	.	.	8BB
.	8e]	2r	8C
.	8g	.	8E
.	8f	.	8D
.	8e	.	8C
=19	=19	=19	=19
4.cc]	2f	2r	2D
16dd	.	.	.
16cc	.	.	.
8b	2r	8d	2r
8cc	.	8e	.
8cc#	.	8e	.
8dd	.	8f	.
=20	=20	=20	=20
[1dd	[2f	8f	8GG
.	.	8d	8BB
.	.	4.B	8D
.	.	.	8E
.	8f]	.	8F
.	8d	8B	8A
.	8e	8c	8G
.	8f	8d	8F
=21	=21	=21	=21
4.dd]	2g	2e	2E
16ee	.	.	.
16dd	.	.	.
8cc	2r	8r	2r
8b	.	8d	.
8cc	.	8e	.
8dd	.	8f	.
=22	=22	=22	=22
[2ee	2r	2.g	8C
.	.	.	8E
.	.	.	8G
.	.	.	8B
8ee]	2ee	.	8c
8ee	.	.	8B
8ff	.	8cc	8A
8gg	.	8b	8G
=23	=23	=23	=23
1aa	2ff	[2a	8F
.	.	.	8A
.	.	.	8c#
.	.	.	8d
.	4dd	8a]	8f
.	.	8g	8e
.	[4ff	8f	8d
.	.	8e	8c
=24	=24	=24	=24
[2gg	2ff]	8d	8B
.	.	8e	8c
.	.	8f	8d
.	.	8d	8B
8gg]	8ee	2c	8c
16aa	8dd	.	8B
16bb	.	.	.
8ccc	8cc	.	8A
8bb	8cc	.	8G
=25	=25	=25	=25
8bb	1cc	1c	8G
8aa	.	.	8F
8aa	.	.	8F
8gg	.	.	8E
8gg	.	.	8E
8ff	.	.	8D
8ff	.	.	8D
8ee	.	.	8C
=26	=26	=26	=26
4.gg	4.ee	2.G	2.GG
16ff	16dd	.	.
16ee	16cc	.	.
4dd	4b	.	.
4r	4r	4r	4r
=27	=27	=27	=27
1r	8dd	8b	1r
.	8dd	8b	.
.	8dd	8b	.
.	8dd	8b	.
.	8dd	8b	.
.	8dd	8b	.
.	8dd	8b	.
.	8dd	8b	.
=28	=28	=28	=28
16ccc#	1dd	4b	1r
16ddd	.	.	.
16bb	.	.	.
16gg	.	.	.
8dd	.	4r	.
8r	.	.	.
16bb	.	4a	.
16ccc	.	.	.
16aa	.	.	.
16ff#	.	.	.
8dd	.	4r	.
8r	.	.	.
=29	=29	=29	=29
16ff#	2dd	4g	1r
16gg	.	.	.
16bb	.	.	.
16gg	.	.	.
8dd	.	4r	.
8r	.	.	.
16gg	2dd	4f#	.
16ff#	.	.	.
16aa	.	.	.
16ff#	.	.	.
8dd	.	4r	.
8r	.	.	.
=30	=30	=30	=30
8r	1dd	2g	2B-
8dd	.	.	.
8ccc#	.	.	.
8ddd	.	.	.
8r	.	2f#	2A
8dd	.	.	.
8bb	.	.	.
8ccc	.	.	.
=31	=31	=31	=31
8r	2dd	2g	2G
8dd	.	.	.
8aa	.	.	.
8bb-	.	.	.
8r	2dd	2f#	2d
8dd	.	.	.
8gg#	.	.	.
8aa	.	.	.
=32	=32	=32	=32
16ff#	4d 4b-	4g	2G
16gg	.	.	.
16bb-	.	.	.
16gg	.	.	.
8dd	4r	4r	.
8r	.	.	.
4ddd	4bb-	16f#	2r
.	.	16g	.
.	.	16b-	.
.	.	16g	.
4ddd	4bb-	8d	.
.	.	8r	.
=33	=33	=33	=33
16gg	4d 4a	4f#	2D
16ff#	.	.	.
16aa	.	.	.
16ff#	.	.	.
8dd	4r	4r	.
8r	.	.	.
4ccc	4aa	16g	2r
.	.	16f#	.
.	.	16a	.
.	.	16f#	.
4ccc	4aa	8d	.
.	.	8r	.
=34	=34	=34	=34
16f#	4d 4b-	4b-	4G
16g	.	.	.
16b-	.	.	.
16g	.	.	.
8d	2.r	4r	4r
8r	.	.	.
4dd	.	4b-	16F#
.	.	.	16G
.	.	.	16B-
.	.	.	16G
4dd	.	4b-	8D
.	.	.	8r
=35	=35	=35	=35
16g	4f# 4a	4d	4DD
16f#	.	.	.
16a	.	.	.
16f#	.	.	.
8d	2.r	4r	4r
8r	.	.	.
4cc	.	4a	16G
.	.	.	16F#
.	.	.	16A
.	.	.	16F#
4cc	.	4a	8D
.	.	.	8r
=36	=36	=36	=36
2gg	2d 2b	2G	16F#
.	.	.	16G
.	.	.	16F#
.	.	.	16G
.	.	.	8GG
.	.	.	2r
4gg	4b	2r	.
4gg	4b	.	.
.	.	.	8r
=37	=37	=37	=37
4.ccc	4.a	[2dd	4.f#
8bb	8b	.	8g
8aa	8cc	8dd]	4a
8r	8r	8r	.
16ff#	8cc	4dd	4r
16gg	.	.	.
16aa	8b	.	.
16gg	.	.	.
=38	=38	=38	=38
4.ccc	4.a	[2dd	4.f#
8bb	8b	.	8g
8aa	8cc	8dd]	4a
8r	8r	8r	.
16ff#	8cc	4dd	4r
16gg	.	.	.
16aa	8b	.	.
16gg	.	.	.
=39	=39	=39	=39
16ff#	8cc	4dd	1r
16gg	.	.	.
16aa	8b	.	.
16gg	.	.	.
16ff#	8cc	4dd	.
16gg	.	.	.
16aa	8b	.	.
16gg	.	.	.
16ff#	8cc	4dd	.
16gg	.	.	.
16aa	8b	.	.
16gg	.	.	.
16ff#	8cc	4dd	.
16gg	.	.	.
16aa	8b	.	.
16gg	.	.	.
=40	=40	=40	=40
4.eee	4.ccc	2.a	2.F#
8ddd	8bb	.	.
4ccc	4aa	.	.
4bb	4gg	4d	4G
=41	=41	=41	=41
4.aa	4ee	4e	2C
.	2r	2r	.
8gg#	.	.	.
8gg	.	.	4r
8ff#	.	.	.
8ee	4cc	4f#	4D
8dd	.	.	.
=42	=42	=42	=42
4gg	4b	4g	4GG
8r	2.r	2.r	2.r
8f#	.	.	.
8g	.	.	.
8a	.	.	.
8b	.	.	.
8cc	.	.	.
=43	=43	=43	=43
2dd	8g	1r	1r
.	8d	.	.
.	8g	.	.
.	8d	.	.
4dd	8g	.	.
.	8d	.	.
4dd	8g	.	.
.	8d	.	.
=44	=44	=44	=44
8dd	8b	1r	1r
8cc	8d	.	.
8cc	8a	.	.
8b	8d	.	.
8b	8g	.	.
4.r	8d	.	.
.	8g	.	.
.	8d	.	.
=45	=45	=45	=45
8cc	8a	1r	1r
8b	8d	.	.
8b	8g	.	.
8a	8d	.	.
4a	8f#	.	.
.	8d	.	.
4r	8f#	.	.
.	8d	.	.
=46	=46	=46	=46
4g	8g	8e	1r
.	8f#	8d	.
4g	8f#	8d	.
.	8e	8c	.
4a	4e	4c	.
4a	4e	4c	.
=47	=47	=47	=47
4f#	4d	4A	8D
.	.	.	8C
4f#	4d	4A	8C
.	.	.	8BB
8g	4d	4G	4BB
8a	.	.	.
8b	4d	4G	4BB
8cc	.	.	.
=48	=48	=48	=48
2dd	8g	1r	1r
.	8d	.	.
.	8g	.	.
.	8d	.	.
4dd	8g	.	.
.	8d	.	.
4dd	8g	.	.
.	8d	.	.
=49	=49	=49	=49
8dd	8b	1r	1r
8cc	8d	.	.
8cc	8a	.	.
8b	8d	.	.
4b	8g	.	.
.	8d	.	.
4r	8g	.	.
.	8d	.	.
=50	=50	=50	=50
8cc	8a	1r	1r
8b	8d	.	.
8b	8g	.	.
8a	8d	.	.
4a	8f#	.	.
.	8d	.	.
4r	8f#	.	.
.	8d	.	.
=51	=51	=51	=51
4gg	8g	8e	1r
.	8f#	8d	.
4gg	8f#	8d	.
.	8e	8c	.
4aa	4e	4c	.
4aa	4e	4c	.
=52	=52	=52	=52
4ff#	4d	4A	8D
.	.	.	8C
4ff#	4d	4A	8C
.	.	.	8BB
4gg	4d	4G	4BB
4gg	4d	4G	4BB
=53	=53	=53	=53
4aa	2r	8f#	1r
.	.	8d	.
4aa	.	8f#	.
.	.	8d	.
4bb	4dd	8g	.
.	.	8d	.
8bb	4dd	8g	.
8ddd	.	8d	.
=54	=54	=54	=54
8ddd	4ff#	8a	1r
8ccc#	.	8d	.
8ccc	4ff#	8a	.
8bb	.	8d	.
2bb	4gg	8g	.
.	.	8d	.
.	4gg	8g	.
.	.	8d	.
=55	=55	=55	=55
4.aa	4ee	4e	2c
.	2r	2r	.
8gg#	.	.	.
8gg	.	.	4r
8ff#	.	.	.
8ee	4cc	4f#	4d
8dd	.	.	.
=56	=56	=56	=56
[1gg	4.gg	4g	4G
.	.	2.r	2.r
.	8ff#	.	.
.	8ff	.	.
.	8ee	.	.
.	8dd	.	.
.	8cc	.	.
=57	=57	=57	=57
1gg_	2.b	4.g	1r
.	.	8f#	.
.	.	8f	.
.	.	8e	.
.	4cc	8d	.
.	.	8c	.
=58	=58	=58	=58
1gg_	2.dd	2.B	4.G
.	.	.	8F#
.	.	.	8F
.	.	.	8E
.	4ee	4c	8D
.	.	.	8C
=59	=59	=59	=59
4gg]	8ff	8d	4BB
.	8ff	8d	.
2.r	8ff	8d	2.r
.	8ff	8d	.
.	8ff	8d	.
.	8ff	8d	.
.	8ff	8d	.
.	8ff	8d	.
=60	=60	=60	=60
1r	8ee	8g	8B-
.	8ee	8g	8B-
.	8ee	8g	8B-
.	8ee	8g	8B-
.	8ee	8g	8B-
.	8ee	8g	8B-
.	8ee	8g	8B-
.	8ee	8g	8B-
=61	=61	=61	=61
1ccc	8ee	8g	8B-
.	8ee	8g	8B-
.	8ee	8g	8B-
.	8ee	8g	8B-
.	8ee	8g	8B-
.	8ee	8g	8B-
.	8ee	8g	8B-
.	8ee	8g	8B-
=62	=62	=62	=62
2ccc	8ee	8g	8B-
.	8ee	8g	8B-
.	8ee	8g	8B-
.	8ee	8g	8B-
2ccc	8ee	8g	8B-
.	8ee	8g	8B-
.	8ee	8g	8B-
.	8ee	8g	8B-
=63	=63	=63	=63
[2ccc	4ff	4f	4A
.	2a	2c	4FF
8ccc]	.	.	4AA
16aa	.	.	.
16ccc	.	.	.
8bb-	4b-	8e	4C
16gg	.	8g	.
16ee	.	.	.
=64	=64	=64	=64
16gg	4a	4f	4F
16ff	.	.	.
16aa	.	.	.
16ff	.	.	.
4.cc	2c	2A	4F
.	.	.	4A
16a	.	.	.
16cc	.	.	.
8b-	8e	4B-	4c
16g	8g	.	.
16e	.	.	.
=65	=65	=65	=65
16e	8f	8A	4F
16f	.	.	.
16a	8A	8c	.
16f	.	.	.
4c	8A	8c	2.r
.	8A	8c	.
2r	8A	8c	.
.	8A	8c	.
.	8A	8c	.
.	8A	8c	.
=66	=66	=66	=66
2ff	2cc	2a	8r
.	.	.	8F
.	.	.	8e-
.	.	.	8c
4ff	2dd	2b-	8r
.	.	.	8F
4ff	.	.	8d
.	.	.	8B-
=67	=67	=67	=67
2aa	4.ee-	2cc	8r
.	.	.	8E-
.	.	.	8c
.	8cc	.	8A
2bb-	2dd	2b-	8r
.	.	.	8D
.	.	.	8B-
.	.	.	8F
=68	=68	=68	=68
2ff#	2ee-	2cc	8r
.	.	.	8A
.	.	.	8e-
.	.	.	8c
4gg	2dd	2b-	8r
.	.	.	8B-
4gg	.	.	8d
.	.	.	8g
=69	=69	=69	=69
2ccc	2dd	2a	8r
.	.	.	8F#
.	.	.	8d
.	.	.	8A
2bb-	4dd	2g	8r
.	.	.	8G
.	4dd	.	8d
.	.	.	8B-
=70	=70	=70	=70
2bb-	2cc#	2g	8r
.	.	.	8G
.	.	.	8e
.	.	.	8c#
2aa	[2dd	2f#	8r
.	.	.	8F#
.	.	.	8d
.	.	.	8A
=71	=71	=71	=71
2gg#	2dd]	[1e	8r
.	.	.	8E
.	.	.	8d
.	.	.	8B
4aa	2cc	.	8r
.	.	.	8E
4aa	.	.	8c
.	.	.	8A
=72	=72	=72	=72
2dd	2b	2e]	8r
.	.	.	8E
.	.	.	8B
.	.	.	8G#
4cc	4a	2d#	8r
.	.	.	8D#
4cc	4a	.	8c
.	.	.	8A
=73	=73	=73	=73
4.b	4g#	4e	4E
.	2.r	2.r	2.r
8e	.	.	.
8a	.	.	.
8b	.	.	.
8cc	.	.	.
8dd	.	.	.
=74	=74	=74	=74
2ee	8a	1r	1r
.	8e	.	.
.	8a	.	.
.	8e	.	.
4ee	8a	.	.
.	8e	.	.
4ee	8a	.	.
.	8e	.	.
=75	=75	=75	=75
8ee	8cc	1r	1r
8dd	8e	.	.
8dd	8b	.	.
8cc	8e	.	.
4cc	8a	.	.
.	8e	.	.
4r	8a	.	.
.	8e	.	.
=76	=76	=76	=76
8dd	8g#	4.r	4.r
8cc	8e	.	.
8cc	8a	.	.
8b	8e	8E	8E
4b	4g#	8B	8G#
.	.	8c	8A
4r	4r	8d	8B
.	.	8e	8c
=77	=77	=77	=77
2b	2g#	2f	2d
4b	4g#	4f	4d
4b	4g#	4f	4d
=78	=78	=78	=78
4b	4g#	8f	8d
.	.	8e	8c
4cc	4a	8e	8c
.	.	8d	8B
4dd	4b	4d	4B
4r	4r	4r	4r
=79	=79	=79	=79
4dd	4b	8d	8B
.	.	8c	8A
4ee	4cc	8c	8A
.	.	8B	8G#
4ff	4dd	4B	4G#
4r	4r	4r	4r
=80	=80	=80	=80
16gg#	4a	1r	1r
16aa	.	.	.
16ccc	.	.	.
16aa	.	.	.
8ff	4f	.	.
8ff	.	.	.
16cc#	4d	.	.
16dd	.	.	.
16ff	.	.	.
16dd	.	.	.
8b	4B	.	.
8b	.	.	.
=81	=81	=81	=81
16a	4G#	4r	4r
16g#	.	.	.
16b	.	.	.
16g#	.	.	.
2f	2d	2B	2G#
8e	8c	4E	4G#
8d	8B	.	.
=82	=82	=82	=82
4c	1A	2E	2A
4.a	.	.	.
.	.	2r	2C
8g#	.	.	.
8g	.	.	.
8f	.	.	.
=83	=83	=83	=83
2f	4.d	2f	2D
.	8c#	.	.
2r	8c	8e	2E
.	8B	8d	.
.	8A	8c	.
.	8G#	8B	.
=84	=84	=84	=84
16gg#	4a	4a	4A
16aa	.	.	.
16ccc	.	.	.
16aa	.	.	.
8ff	4f	4f	4F
8ff	.	.	.
16cc#	4d	4d	4D
16dd	.	.	.
16ff	.	.	.
16dd	.	.	.
8b	4B	4B	4BB
8b	.	.	.
=85	=85	=85	=85
[1g	8f	8d	2GG
.	8G	8B	.
.	8f	8d	.
.	8G	8B	.
.	8f	8d	2r
.	8G	8B	.
.	8f	8d	.
.	8G	8B	.
=86	=86	=86	=86
1g_	8e-	8c	2GG
.	8G	8e-	.
.	8e-	8c	.
.	8G	8e-	.
.	8e-	8c	2r
.	8G	8e-	.
.	8e-	8c	.
.	8G	8e-	.
=87	=87	=87	=87
1g_	8d	2c	2GG
.	8G	.	.
.	8d	.	.
.	8G	.	.
.	8d	4B	2r
.	8G	.	.
.	8d	4d	.
.	8G	.	.
=88	=88	=88	=88
2g]	4G	[1e-	[1C
.	2.r	.	.
4g	.	.	.
4g	.	.	.
=89	=89	=89	=89
1g	2a-	2.e-]	1C]
.	4a-	.	.
.	4a-	4cc	.
=90	=90	=90	=90
[1f	1a-	2b	1D
.	.	4b	.
.	.	4b	.
=91	=91	=91	=91
2f]	1g	2.cc	2c
4e-	.	.	4c
4cc	.	4e-	4c
=92	=92	=92	=92
2cc	2dd	1d	1G
2b	4dd	.	.
.	4dd	.	.
=93	=93	=93	=93
2ee	1cc#	1B-	1G
4ee	.	.	.
4ee	.	.	.
=94	=94	=94	=94
2ee	2aa	2A	1F
2dd	4aa	2d	.
.	4aa	.	.
=95	=95	=95	=95
2ccc	2aa	1d#	1F
4ccc	4aa	.	.
4ccc	4aa	.	.
=96	=96	=96	=96
1ccc	1aa	1e	1E
=97	=97	=97	=97
1bb	1gg#	1e	1E
=98	=98	=98	=98
1r	8b	8g	1r
.	8b	8g	.
.	8b	8g	.
.	8b	8g	.
.	8b	8g	.
.	8b	8g	.
.	8b	8g	.
.	8b	8g	.
=99	=99	=99	=99
8r	1b	4g	1r
8b	.	.	.
8bb	.	4r	.
8gg	.	.	.
8r	.	4f#	.
8b	.	.	.
8aa	.	4r	.
8ff#	.	.	.
=100	=100	=100	=100
8r	2b	4e	1r
8b	.	.	.
8gg	.	4r	.
8ee	.	.	.
8r	2b	4d#	.
8b	.	.	.
8ff#	.	4r	.
8dd#	.	.	.
=101	=101	=101	=101
8r	1b	2e	2G
8b	.	.	.
8aa#	.	.	.
8bb	.	.	.
8r	.	2d#	2F#
8b	.	.	.
8gg#	.	.	.
8aa	.	.	.
=102	=102	=102	=102
8r	2b	2e	2E
8b	.	.	.
8ff#	.	.	.
8gg	.	.	.
8r	2b	2d#	2B
8b	.	.	.
8ee#	.	.	.
8ff#	.	.	.
=103	=103	=103	=103
4.ccc	4.dd#	4.a	4.f#
8bb	8ee	8b	8g
8aa	8ff#	8cc	8a
8r	4.r	4.r	4.r
16ff#	.	.	.
16gg	.	.	.
16aa	.	.	.
16gg	.	.	.
=104	=104	=104	=104
4.ccc	4.dd#	4.a	4.f#
8bb	8ee	8b	8g
8aa	8ff#	8cc	8a
8r	4.r	4.r	4.r
16ff#	.	.	.
16gg	.	.	.
16aa	.	.	.
16gg	.	.	.
=105	=105	=105	=105
16ff#	1r	1r	1r
16gg	.	.	.
16aa	.	.	.
16gg	.	.	.
16ff#	.	.	.
16gg	.	.	.
16aa	.	.	.
16gg	.	.	.
16ff#	.	.	.
16gg	.	.	.
16aa	.	.	.
16gg	.	.	.
16ff#	.	.	.
16gg	.	.	.
16aa	.	.	.
16gg	.	.	.
=106	=106	=106	=106
4.ccc	4.dd#	4.a	4.F
8bb	8ee	8b	8G
8aa	4ff#	4cc	4A
8r	.	.	.
[4gg	[4ee	4a#	4A#
=107	=107	=107	=107
4gg]	4ee]	2b	2B
4.bb	4.gg	.	.
.	.	2B	2BB
8aa	8ff#	.	.
8gg	8ee	.	.
8ff#	8dd#	.	.
=108	=108	=108	=108
4ee	8ee	8e	1r
.	8b	8e	.
2.r	8b	8e	.
.	8b	8e	.
.	8b	8e	.
.	8b	8e	.
.	8b	8e	.
.	8b	8e	.
=109	=109	=109	=109
1gg	8b	8e	1r
.	8b	8e	.
.	8b	8e	.
.	8b	8e	.
.	8b	8e	.
.	8b	8e	.
.	8b	8e	.
.	8b	8e	.
=110	=110	=110	=110
2gg	8b	8d	1f
.	8b	8d	.
.	8b	8d	.
.	8b	8d	.
2gg	8b	8d	.
.	8b	8d	.
.	8b	8d	.
.	8b	8d	.
=111	=111	=111	=111
[2gg	4cc	4e	4e
.	2g	2e	4CC
8gg]	.	.	4EE
16ee	.	.	.
16gg	.	.	.
8ff	8b	4f	4GG
16dd	8dd	.	.
16b	.	.	.
=112	=112	=112	=112
16b	4cc	4e	4C
16cc	.	.	.
16ee	.	.	.
16cc	.	.	.
4.g	2e	2G	4C
.	.	.	4E
16e	.	.	.
16g	.	.	.
8f	4f	8B	4G
16d	.	8d	.
16B	.	.	.
=113	=113	=113	=113
16B	4e	4c	4c
16c	.	.	.
16e	.	.	.
16c	.	.	.
8G	2.r	2.r	2.r
2r	.	.	.
8r	.	.	.
=114	=114	=114	=114
1r	8cc#	8e	1r
.	8cc#	8e	.
.	8cc#	8e	.
.	8cc#	8e	.
.	8cc#	8e	.
.	8cc#	8e	.
.	8cc#	8e	.
.	8cc#	8e	.
=115	=115	=115	=115
1aa	8cc#	8e	1r
.	8cc#	8e	.
.	8cc#	8e	.
.	8cc#	8e	.
.	8cc#	8e	.
.	8cc#	8e	.
.	8cc#	8e	.
.	8cc#	8e	.
=116	=116	=116	=116
2aa	8cc#	8e	1r
.	8cc#	8e	.
.	8cc#	8e	.
.	8cc#	8e	.
2aa	8cc#	8e	.
.	8cc#	8e	.
.	8cc#	8e	.
.	8cc#	8e	.
=117	=117	=117	=117
[2aa	4dd	4f	4r
.	2a	2f	4DD
8aa]	.	.	4FF
16ff	.	.	.
16aa	.	.	.
8gg	8cc#	4g	4AA
16ee	8ee	.	.
16cc#	.	.	.
=118	=118	=118	=118
16cc#	4dd	4f	4D
16dd	.	.	.
16ff	.	.	.
16dd	.	.	.
4.a	2f	2A	4D
.	.	.	4F
16f	.	.	.
16a	.	.	.
8g	4g	8c#	4A
16e	.	8e	.
16c#	.	.	.
=119	=119	=119	=119
16c#	4f	4d	4d
16d	.	.	.
16f	.	.	.
16d	.	.	.
8A	2.r	2.r	2.r
2r	.	.	.
8r	.	.	.
=120	=120	=120	=120
1r	8d	8B-	1r
.	8d	8B-	.
.	8d	8B-	.
.	8d	8B-	.
.	8d	8B-	.
.	8d	8B-	.
.	8d	8B-	.
.	8d	8B-	.
=121	=121	=121	=121
[2gg	8d	8B-	1r
.	8d	8B-	.
.	8d	8B-	.
.	8d	8B-	.
8gg]	8d	8B-	.
16aa	8d	8B-	.
16bb-	.	.	.
16aa	8d	8B-	.
16gg	.	.	.
16ff	8d	8B-	.
16ee	.	.	.
=122	=122	=122	=122
2dd	2.e	1A	1r
4cc#	.	.	.
4dd	4f	.	.
=123	=123	=123	=123
2cc	2.f	[1G	1r
4b	.	.	.
4cc	4e	.	.
=124	=124	=124	=124
4.dd	2.B	1G]	1r
8ee	.	.	.
4ff	.	.	.
8ee	4c	.	.
8cc	.	.	.
=125	=125	=125	=125
[1gg	8G	2G	2g
.	8g	.	.
.	8b	.	.
.	8dd	.	.
.	8r	2r	2f
.	8g	.	.
.	8b	.	.
.	8dd	.	.
=126	=126	=126	=126
1gg_	8r	1r	2e
.	8g	.	.
.	8cc	.	.
.	8ee	.	.
.	8r	.	2B
.	8g	.	.
.	8dd	.	.
.	8ff	.	.
=127	=127	=127	=127
2gg]	8r	2r	2c
.	8g	.	.
.	8ee	.	.
.	8gg	.	.
8gg	4gg	2b	2F
8gg	.	.	.
8bb	4gg	.	.
8ddd	.	.	.
=128	=128	=128	=128
8r	[1gg	2cc	2E
8gg	.	.	.
8ccc	.	.	.
8eee	.	.	.
8r	.	2dd	2BB
8gg	.	.	.
8ddd	.	.	.
8fff	.	.	.
=129	=129	=129	=129
16fff	4gg]	4ee	2C
16eee	.	.	.
16ggg	.	.	.
16eee	.	.	.
8ccc	4r	4r	.
2r	.	.	.
.	4ee	4cc	2r
.	4ee	4cc	.
8r	.	.	.
=130	=130	=130	=130
16eee	4ff	4dd	2GG
16ddd	.	.	.
16fff	.	.	.
16ddd	.	.	.
8gg	4r	4r	.
2r	.	.	.
.	4ff	4dd	2r
.	4ff	4dd	.
8r	.	.	.
=131	=131	=131	=131
16fff	4ee	4cc	4c
16eee	.	.	.
16ggg	.	.	.
16eee	.	.	.
8ccc	4r	4r	4r
2r	.	.	.
.	4ee	4cc	16BB
.	.	.	16C
.	.	.	16E
.	.	.	16C
.	4ee	4cc	4GG
8r	.	.	.
=132	=132	=132	=132
16eee	4ff	4dd	2r
16ddd	.	.	.
16fff	.	.	.
16ddd	.	.	.
8gg	4r	4r	.
2r	.	.	.
.	4ff	4dd	16c
.	.	.	16B
.	.	.	16d
.	.	.	16B
.	4ff	4dd	4G
8r	.	.	.
=133	=133	=133	=133
16bb	4gg	4cc	4E
16ccc	.	.	.
16eee	.	.	.
16ccc	.	.	.
8gg	2.r	2.r	2.r
8r	.	.	.
16ff	.	.	.
16ee	.	.	.
16gg	.	.	.
16ee	.	.	.
8cc	.	.	.
8r	.	.	.
=134	=134	=134	=134
16gg#	4aa	4cc	4F
16aa	.	.	.
16ccc	.	.	.
16aa	.	.	.
8ff	2.r	2.r	2.r
8r	.	.	.
16ee	.	.	.
16ff	.	.	.
16aa	.	.	.
16ff	.	.	.
8dd	.	.	.
8r	.	.	.
=135	=135	=135	=135
2.r	1r	1r	1r
8aa	.	.	.
8gg	.	.	.
=136	=136	=136	=136
8gg	2dd	2a	2F
8ff	.	.	.
8ff	.	.	.
8ee	.	.	.
8ee	2r	2r	2r
8dd	.	.	.
8ff	.	.	.
8ee	.	.	.
=137	=137	=137	=137
8ee	1f	1d	1G
8dd	.	.	.
8dd	.	.	.
8cc#	.	.	.
8cc	.	.	.
8b	.	.	.
8a	.	.	.
8g	.	.	.
=138	=138	=138	=138
4cc	4e	4c	4C
8r	2.r	2.r	2.r
8g	.	.	.
8cc	.	.	.
8dd	.	.	.
8ee	.	.	.
8ff	.	.	.
=139	=139	=139	=139
2gg	8cc	1r	1r
.	8g	.	.
.	8cc	.	.
.	8g	.	.
4gg	8cc	.	.
.	8g	.	.
4gg	8cc	.	.
.	8g	.	.
=140	=140	=140	=140
8gg	8ee	1r	1r
8ff	8g	.	.
8ff	8dd	.	.
8ee	8g	.	.
4ee	8cc	.	.
.	8g	.	.
4r	8cc	.	.
.	8g	.	.
=141	=141	=141	=141
8ff	8dd	1r	1r
8ee	8g	.	.
8ee	8cc	.	.
8dd	8g	.	.
4dd	8b	.	.
.	8g	.	.
4r	8b	.	.
.	8g	.	.
=142	=142	=142	=142
4cc	8a	8cc	1r
.	8g	8b	.
4cc	8g	8b	.
.	8f	8a	.
4dd	4f	4a	.
4dd	4f	4a	.
=143	=143	=143	=143
4b	4d	4g	8G
.	.	.	8F
4b	4d	4g	8F
.	.	.	8E
8cc	4c	4g	4E
8dd	.	.	.
8ee	4c	4g	4E
8ff	.	.	.
=144	=144	=144	=144
2gg	8cc	1r	1r
.	8g	.	.
.	8cc	.	.
.	8g	.	.
4gg	8cc	.	.
.	8g	.	.
4gg	8cc	.	.
.	8g	.	.
=145	=145	=145	=145
8gg	8ee	2r	2r
8ff	8g	.	.
8ff	8dd	.	.
8ee	8g	.	.
4ee	4cc	8e	8c
.	.	8f	8d
4r	4r	8f	8d
.	.	8g	8e
=146	=146	=146	=146
8ff	8dd	2r	2r
8ee	8cc	.	.
8ee	8cc	.	.
8dd	8b	.	.
4dd	4b	8B	8G
.	.	8c	8A
4r	4r	8c	8A
.	.	8d	8B
=147	=147	=147	=147
4cc	8g	8e	4c
.	8f	8d	.
2cc	8f	8d	2.r
.	8e	8c	.
.	8a	8f	.
.	8g	8e	.
[4dd	8g	8e	.
.	8f	8d	.
=148	=148	=148	=148
4dd]	8b	8g	1r
.	8a	8f	.
2ee	8a	8f	.
.	8g	8e	.
.	8cc	8a	.
.	8b	8g	.
4ff	8b	8g	.
.	8a	8f	.
=149	=149	=149	=149
2ff	8b	2g	8G
.	8cc	.	8A
.	8cc	.	8A
.	8dd	.	8B
8ee	8e	8g	8c
8dd	8f	8f	8d
8dd	8f	8f	8d
8cc	8g	8e	8e
=150	=150	=150	=150
4.dd	4a	4f	4F
.	2r	2r	2r
8cc#	.	.	.
8cc	.	.	.
8b	.	.	.
8a	4f	4d	4G
8g	.	.	.
=151	=151	=151	=151
[1cc	4.cc	4e	4C
.	.	2.r	2.r
.	8b	.	.
.	8b-	.	.
.	8a	.	.
.	8g	.	.
.	8f	.	.
=152	=152	=152	=152
1cc_	2.e	4.c	1r
.	.	8B	.
.	.	8B-	.
.	.	8A	.
.	4f	8G	.
.	.	8F	.
=153	=153	=153	=153
1cc_	2.g	2.E	4.C
.	.	.	8BB
.	.	.	8BB-
.	.	.	8AA
.	4a	4F	8GG
.	.	.	8FF
=154	=154	=154	=154
4cc]	8b-	8G	4EE
.	8b-	8g	.
2.r	8b-	8g	2.r
.	8b-	8g	.
.	8b-	8g	.
.	8b-	8g	.
.	8b-	8g	.
.	8b-	8g	.
=155	=155	=155	=155
[1cc	2e	4e	2C
.	.	2.r	.
.	8e	.	8C
.	8f	.	8D
.	8f	.	8D
.	8g	.	8E
=156	=156	=156	=156
1cc]	2g	2e	4E
.	.	.	2.r
.	8g	8e	.
.	8a	8f	.
.	8a	8f	.
.	8b-	8g	.
=157	=157	=157	=157
2cc	2b-	2.g	2.e
8cc#	8b-	.	.
8dd	8g	.	.
8dd	4a	4f	4d
8ee	.	.	.
=158	=158	=158	=158
4gg	4a	4e	4c#
4gg	4a	4e	4c#
4ff#	4a	4d	4d
4ff#	4a	4d	4d
=159	=159	=159	=159
4ff	4g	4d	4B
4ff	4g	4d	4B
4ee	4g	4e	4c
4ee	4g	4e	4c
=160	=160	=160	=160
4.aa	2d	2f	2F
8gg#	.	.	.
8gg	2r	2r	2r
8ff#	.	.	.
8ff	.	.	.
8ee	.	.	.
=161	=161	=161	=161
8ee-	1r	1r	1r
8dd	.	.	.
8cc#	.	.	.
8dd	.	.	.
8a	.	.	.
8aa	.	.	.
8ff	.	.	.
8dd	.	.	.
=162	=162	=162	=162
4cc	8cc	8e	8G
.	8cc	8e	8G
4ee	8cc	8e	8G
.	8cc	8e	8G
4gg	8cc	8e	8G
.	8cc	8e	8G
4ccc	8cc	8e	8G
.	8cc	8e	8G
=163	=163	=163	=163
4eee	8cc	8e	8G
.	8cc	8e	8G
4r	8cc	8e	8G
.	8cc	8e	8G
4ggg	8cc	8e	8G
.	8cc	8e	8G
4r	8cc	8e	8G
.	8cc	8e	8G
=164	=164	=164	=164
1dd	8b	8f	8G
.	8b	8f	8G
.	8b	8f	8G
.	8b	8f	8G
.	8b	8f	8G
.	8b	8f	8G
.	8b	8f	8G
.	8b	8f	8G
=165	=165	=165	=165
2cc	1cc	8f#	8A
.	.	8f#	8A
.	.	8f#	8A
.	.	8f#	8A
2r	.	8f#	8A
.	.	8f#	8A
.	.	8f#	8A
.	.	8f#	8A
=166	=166	=166	=166
1r	2cc	8f#	8A
.	.	8f#	8A
.	.	8f#	8A
.	.	8f#	8A
.	2cc	8f#	8A
.	.	8f#	8A
.	.	8f#	8A
.	.	8f#	8A
=167	=167	=167	=167
1gg	8cc	8g	4G
.	8cc	8e	.
.	8cc	8e	2.r
.	8cc	8e	.
.	8cc	8e	.
.	8cc	8e	.
.	8cc	8e	.
.	8cc	8e	.
=168	=168	=168	=168
2gg	8cc	8e	1r
.	8cc	8e	.
.	8cc	8e	.
.	8cc	8e	.
2gg	8cc	8e	.
.	8cc	8e	.
.	8cc	8e	.
.	8cc	8e	.
=169	=169	=169	=169
[2gg	4cc	4e	8r
.	.	.	8GG
.	2g	2e	8C
.	.	.	8E
8gg]	.	.	4G
16ee	.	.	.
16gg	.	.	.
8ff	8b	4f	4G
16dd	8dd	.	.
16b	.	.	.
=170	=170	=170	=170
16b	4cc	4e	8r
16cc	.	.	.
16ee	.	.	8GG
16cc	.	.	.
4.g	2G 2e	2c	8C
.	.	.	8E
.	.	.	4G
16e	.	.	.
16g	.	.	.
8f	4b 4f 4G	8B	4GG
16d	.	8d	.
16B	.	.	.
=171	=171	=171	=171
4c	4G 4e 4cc	4c	4CC
2.r	2.r	2.r	2.r
==	==	==	==
*-	*-	*-	*-
!!!RWG1: This file contains only pitch and duration data.
!!!RWG2: Transposing instruments are not transposed.
!!!RWG3: Spines may have incompatible meters.
!!!RWG4: Durations of rests and tied notes may be interpreted.
!!!RWG: Key is interpreted using the Humdrum key tool.
!!!GTL: 6 Quators ("Jungfernquartette")
!!!OPT: The Bird
!!!AFT: stage1
!!!END: 1997/04/15
!!format changes:
!!content changes:
!!public access: complete
!!!KEY: 4291067336
!!!EMD: Converted from MuseData to Humdrum Dec 16, 2000, by Andreas Kornstaedt using muse2kern.
